X: 10334
Q: "With spirit."
M: 3/4
L: 1/8
K: G
d3cB2 | A2G2F2 | G3A (3(Bcd) | D4(GF) |\
E3GF2 | G3Bd2 | {e}d3 c B2 | {B}A4 (dc) |\
g2f2e2 | {e}d2(cB)(AG) | D4(AF) | (GF)(GB)(AG) |\
(AG)(Ac)(BA) | (B/G/A/B/c/d/e/f/) Hg>c | (Be) (dc) (BA) | G4 |]


